X:143
T:The Nemesiss
O:No 143 Page 68  William Clarke of Feltwell
N: MS has D.C. at end of B. There is a segno at the start of the A and it makes more musical sense to substitute D.S. at end of B which leads straight into the A again.
M:4/4
L:1/8
K:G
B/c/|!segno! d2 ba {a}g2 eg| d2 ba g2 eg |dedc BcdB| dcBc A2 Bc|d2 ba {a}g2 eg| d2 ba g2 eg| dedc BcBA | GBdg G2||
FG| ABcd dcBA| Bcde edcB| {A/B/}c2 BA  {G/A/} B2 AG| FGEF D2 FG| ABcd dcBA| Bbag egdB| ccac BBgB|fede dcBc|!D.S.!||

